svg/fluentui-system-icons/ic_fluent_math_format_professional_16_regular.svg

<svg width="16" height="16" viewBox="0 0 16 16" fill="none" xmlns="http://www.w3.org/2000/svg">
<path d="M9.13529 3.0424C9.05752 3.08334 9.01588 3.12124 8.85355 3.28356C8.65829 3.47883 8.34171 3.47883 8.14645 3.28356C7.95118 3.0883 7.95118 2.77172 8.14645 2.57646L8.16277 2.56012C8.32497 2.39779 8.46171 2.26093 8.70708 2.13825C8.71947 2.13205 8.73212 2.12637 8.74499 2.12122C9.35049 1.87903 9.95886 2.00446 10.4259 2.34978C10.6281 2.4877 10.7557 2.65475 10.8491 2.80155C10.889 2.8642 10.9263 2.92921 10.9574 2.98361L10.9699 3.00531C11.0057 3.06774 11.0364 3.11984 11.0694 3.16948C11.0809 3.18673 11.0914 3.20468 11.1006 3.22323C11.132 3.28594 11.1634 3.34569 11.1953 3.40444L12.4575 2.1423C12.6527 1.94703 12.9693 1.94703 13.1646 2.1423C13.3599 2.33756 13.3599 2.65414 13.1646 2.8494L11.6735 4.34048C11.7446 4.46454 11.8085 4.57384 11.8705 4.66685C11.9328 4.76019 12.0002 4.87249 12.0592 4.97083C12.0852 5.014 12.1095 5.05448 12.131 5.08949C12.2156 5.22702 12.2722 5.30545 12.3094 5.34265C12.4292 5.46248 12.5413 5.49537 12.6284 5.49972C12.7278 5.50469 12.8102 5.47271 12.8483 5.44729C12.8655 5.43579 12.8835 5.42538 12.902 5.4161C12.9879 5.37319 13.02 5.34541 13.1899 5.17554C13.3851 4.98028 13.7017 4.98028 13.897 5.17554C14.0922 5.3708 14.0922 5.68738 13.897 5.88265L13.8808 5.89879C13.7294 6.05041 13.5993 6.1806 13.3751 6.29733C12.956 6.55919 12.2039 6.65131 11.6023 6.04976C11.4724 5.91985 11.3618 5.74761 11.2794 5.61358C11.2444 5.55684 11.2134 5.50506 11.1843 5.45658C11.1331 5.37108 11.088 5.29579 11.0385 5.22155C11.0062 5.17315 10.9743 5.12248 10.9429 5.07108L9.66019 6.3538C9.46493 6.54906 9.14835 6.54906 8.95309 6.3538C8.75782 6.15854 8.75782 5.84195 8.95309 5.64669L10.4544 4.14534C10.454 4.13893 10.4536 4.13252 10.4534 4.12612C10.3789 3.99564 10.2996 3.8552 10.2197 3.6973C10.1743 3.62735 10.1354 3.56027 10.1028 3.50343L10.0897 3.48059C10.0571 3.42381 10.0321 3.3802 10.0055 3.33842C9.94999 3.25122 9.9085 3.20659 9.85925 3.17376C9.85155 3.16863 9.844 3.16329 9.8366 3.15774C9.62149 2.9964 9.38007 2.95144 9.13529 3.0424ZM6.51136 4.97382C6.9225 4.97675 7.29357 5.17907 7.55305 5.45296C7.81321 5.72757 7.99676 6.11002 8.00255 6.53674C8.0506 7.20265 7.81502 7.74313 7.41166 8.15156C7.02064 8.54748 6.48947 8.80371 5.95468 8.97259C5.00626 9.27209 3.91203 9.33814 3.15895 9.31882C3.00126 9.84585 2.97342 10.244 3.02118 10.5426C3.07048 10.8509 3.20317 11.0751 3.4035 11.2517C3.41312 11.2602 3.4224 11.269 3.43134 11.2782C3.63425 11.4869 3.88585 11.553 4.30221 11.639C5.37239 11.7683 6.43248 11.1459 7.096 10.2359C7.2587 10.0128 7.57146 9.96376 7.79459 10.1265C8.01772 10.2891 8.06671 10.6019 7.90402 10.825C7.0955 11.9339 5.70414 12.8276 4.15686 12.6286C4.14446 12.6271 4.13212 12.625 4.11987 12.6225L4.08364 12.615C3.69776 12.536 3.16185 12.4263 2.72803 11.9892C2.36234 11.6615 2.1188 11.2325 2.03373 10.7005C1.94958 10.1744 2.0241 9.57313 2.24374 8.89474C2.24899 8.86804 2.25651 8.84141 2.26638 8.81508L2.36299 8.55765C2.42066 8.38667 2.73306 7.5125 3.36166 6.67437C3.99926 5.82423 5.02967 4.92761 6.51136 4.97382ZM3.53936 8.32093C4.17999 8.31141 4.97522 8.23322 5.65355 8.01901C6.10874 7.87526 6.46854 7.6834 6.70016 7.44887C6.91559 7.23074 7.03368 6.96482 7.00429 6.59742C7.00323 6.58415 7.0027 6.57085 7.0027 6.55754C7.0027 6.40907 6.93786 6.25762 6.8271 6.1407C6.71333 6.02062 6.58776 5.97379 6.50231 5.97379L6.48565 5.97351C5.47045 5.93967 4.71093 6.54201 4.16166 7.27437C3.88578 7.64221 3.68002 8.02172 3.53936 8.32093Z" fill="#212121"/>
</svg>

<svg xmlns="http://www.w3.org/2000/svg" width="16" height="16"><path d="M9.135 3.042c-.077.041-.12.08-.281.242a.5.5 0 1 1-.708-.708l.017-.016c.162-.162.299-.3.544-.422a.499.499 0 0 1 .038-.017 1.705 1.705 0 0 1 1.68.229 1.5 1.5 0 0 1 .424.452c.04.062.077.127.108.182l.013.021a2.2 2.2 0 0 0 .1.164.488.488 0 0 1 .03.054c.032.063.063.123.095.181l1.262-1.262a.5.5 0 1 1 .708.707L11.674 4.34c.07.125.135.234.197.327s.13.205.188.304l.072.118c.085.138.141.216.178.254a.48.48 0 0 0 .32.157.384.384 0 0 0 .22-.053.5.5 0 0 1 .053-.03c.086-.044.118-.072.288-.241a.5.5 0 1 1 .707.707l-.016.016c-.152.151-.282.282-.506.398-.419.262-1.171.354-1.773-.247a2.45 2.45 0 0 1-.323-.436l-.095-.157a5.674 5.674 0 0 0-.145-.235 4.473 4.473 0 0 1-.096-.15L9.66 6.353a.5.5 0 1 1-.707-.707l1.501-1.502v-.019a9.473 9.473 0 0 1-.234-.429 4.062 4.062 0 0 1-.117-.194l-.013-.022a4.601 4.601 0 0 0-.085-.143.509.509 0 0 0-.168-.18.711.711 0 0 0-.702-.116ZM6.511 4.974c.412.003.783.205 1.042.479.26.275.444.657.45 1.084a2.017 2.017 0 0 1-.591 1.615c-.391.395-.923.652-1.457.82-.949.3-2.043.366-2.796.347-.158.527-.186.925-.138 1.224a1.142 1.142 0 0 0 .41.735c.203.209.455.275.871.361 1.07.13 2.13-.493 2.794-1.403a.5.5 0 0 1 .808.589c-.808 1.109-2.2 2.003-3.747 1.804a.464.464 0 0 1-.037-.006l-.036-.008c-.386-.079-.922-.189-1.356-.626a2.14 2.14 0 0 1-.694-1.289c-.084-.526-.01-1.127.21-1.805a.504.504 0 0 1 .022-.08l.097-.257a7.22 7.22 0 0 1 .999-1.884c.637-.85 1.668-1.746 3.15-1.7ZM3.54 8.32c.641-.01 1.436-.088 2.115-.302.455-.144.815-.336 1.046-.57.216-.218.334-.484.304-.852a.618.618 0 0 0-.177-.457.48.48 0 0 0-.325-.166h-.016c-1.016-.034-1.775.568-2.324 1.3A6.067 6.067 0 0 0 3.54 8.32Z"/></svg>
